src/assets/gamepad/tag-new.svg

<svg width="35" height="34" viewBox="0 0 35 34" fill="none" xmlns="http://www.w3.org/2000/svg">
<circle cx="17.4258" cy="17" r="15.5" fill="#FFF6F4" stroke="#3C365A" stroke-width="3"/>
<path d="M13.6774 20.4629L12.5521 14.0813L13.1362 13.2472L10.6545 13.6848L11.4886 14.2689L12.6558 18.8153L8.52728 14.0599L6.04557 14.4975L6.87966 15.0815L7.87987 20.754L7.29583 21.5881L9.77755 21.1505L8.94346 20.5665L7.77626 16.0201L11.9047 20.7754L13.6774 20.4629ZM17.4358 14.3169L18.5619 14.4839L19.104 15.4849L18.5825 16.6735L16.1633 17.4657L16.2258 17.8202L17.1224 18.7588L17.894 18.9883L18.5405 18.5087L19.4166 17.2576L19.8336 17.5496L19.0201 19.1553L18.3735 19.6348L17.3099 19.8224L15.8293 19.7179L14.5157 18.4873L14.2031 16.7146L15.0166 15.109L16.0177 14.5669L17.4358 14.3169ZM16.2053 15.6305L16.1008 17.1111L17.7484 16.0895L17.6234 15.3805L16.8518 15.1509L16.2053 15.6305ZM23.7145 18.3275L23.4225 18.7446L22.0044 18.9946L19.8361 14.9903L19.002 14.4063L22.5473 13.7811L22.0258 14.9697L23.2349 17.681L23.3189 14.0106L24.6745 13.406L26.4257 17.1183L26.2176 13.8651L25.3835 13.281L28.2198 12.7809L27.6358 13.615L26.9053 17.7649L26.6133 18.1819L25.1951 18.432L24.111 16.4298L23.7145 18.3275Z" fill="#3D365A"/>
</svg>

<svg width="35" height="34" fill="none" xmlns="http://www.w3.org/2000/svg"><circle cx="17.426" cy="17" r="15.5" fill="#FFF6F4" stroke="#3C365A" stroke-width="3"/><path d="m13.677 20.463-1.125-6.382.584-.834-2.481.438.834.584 1.167 4.546-4.129-4.755-2.481.438.834.584 1 5.672-.584.834 2.482-.438-.835-.583-1.167-4.547 4.129 4.755 1.772-.312Zm3.759-6.146 1.126.167.542 1-.521 1.19-2.42.792.063.354.896.939.772.23.647-.48.876-1.251.417.292-.814 1.605-.646.48-1.064.187-1.48-.104-1.314-1.23-.313-1.773.814-1.606 1-.542 1.419-.25Zm-1.23 1.313-.105 1.481 1.647-1.021-.125-.71-.771-.23-.647.48Zm7.509 2.697-.293.418-1.418.25-2.168-4.005-.834-.584 3.545-.625-.521 1.189 1.209 2.711.084-3.67 1.355-.605 1.752 3.712-.208-3.253-.834-.584 2.836-.5-.584.834-.73 4.15-.293.417-1.418.25-1.084-2.002-.396 1.898Z" fill="#3D365A"/></svg>
